X:1
T:Lady Anne Montgomery (R-145)
%C: R-145
M:C|
L:1/8
K:D Major
A| "D"FADA FADA| FAdA "G"BAdA|"D"FADF "Em"EDEF| "A"DB,A,B, "D"D3E|
"D"FADA FADA| FAdA BABc|"G"dBAF "Em"E3F|"A"DB,A,B, "D"D3:|
|: e| "D"f3f fede| fedB ABde|   f2fe "Bm"fede| "Em"fgaf "A"efde|
"D"f3f fede| fedB ABde|"G"fded "Em"BdAd| "A"egfe "D"d3:|
%%textfont Times-Bold 10.0
%%text Alternate chords/bass line for part B:
%%text |: D - | - - | F#m/C# - | - - | Bm - | - - | Em G | A D :|

